X:0720
T:Vulcan's Forge.
C:Play it after the March.
M:6/8
L:1/8
Q:3/8=104
I: :: :|
Z:Jack Campin * www.campin.me.uk * 2009
K:C
c'2g edc |f2 d BAG |c>fe d>gf |e>dc B>AG|
c'2g edc |f2 d B>AG|A>Bc G>AB |c3   z2z:|
c2 G d2 G|e2 c BAG |gab  c'>ba|g<ec d<BG|
c>ec d<fd|e<fe f<gf|e>dc G>AB |c3   z2z:|

